X: 89
T:Alborada Antiga de Ourense
M:2/4
L:1/16
Q:100
C:Trad.
S:Rep.: Faustino Santalices
R:Alborada
K:C
CDEF | "~"G2 FE D2C"F."G | "~"C2 B,"F."G B,CDE | F2GF "~"E2D2 | G2C"F."G
 CDEF | "~"G2FE D2C"F."G|
"~"C2B,"F."G B,CDE | FGFE D2G2 |1 C8- | C2"F."G2 :|2 C8- | C2"F."G2 C"F.
"GC2 |: D3B, C2D2 |
E3C D2E2 | F3D E2F2 | G8- |1 G4 C"F."GC2 :|2 AGFE DEFA | G8 | AGFE DEFA
| 
G4- G2"F."cG | A3G B3G | c4-c3 G | A2{B}AG B2{c}BG | c4 c2G2 |: c2BA GAB
c |
ABAG FGAB | GAGF EFGA | FGFE DEFG | EFED CDEC | DEDC B,CDB, |1 C4- C2G2
:|2 |: C4- C2"F."GC |
D2{E}DC B,CDB, :||: C4- C"F."GC2 | F2{G}FE DEFD | E2{F}ED CDEC| D2{E}DC
B,CDB, :| 
C4- C2G2 | C4-C2G2 | C2G2 C2G2 |C8- | C2"F."G2 

